build-source/logos/rte2fm.default.svg

<svg xmlns="http://www.w3.org/2000/svg" viewBox="0 0 712 180"><g transform="matrix(20.1745 0 0 20.1745-6470.78-11577.42)"><g fill="#003b79"><path d="m336.1 581.68c-1.302 0-2.397-.931-2.594-2.246h2.465c.271 0 .866.057.866.057v-1.091c0 0-.583.043-.908.043h-2.423c.244-1.291 1.306-2.184 2.594-2.184.68 0 1.517.313 1.517.313l.015-1.148c0 0-.595-.225-1.531-.225-2.167 0-4.064 1.657-4.064 3.766 0 2.282 1.897 3.824 4.064 3.824 1.019 0 1.627-.271 1.627-.271l-.028-1.188c0 0-.752.35-1.6.35"/><path d="m328.73 582.76c0 0 .082-.551.082-1.033v-5.237h-.354c-.481 0-1.229 0-1.78.055l-.047-1.218h5.751l-.027 1.218c-.569-.055-1.302-.055-1.799-.055h-.438v5.237c0 .482.097 1.033.097 1.033h-1.485"/></g><path d="m337.64 574.72c-.422-.119-.977-.2-1.441-.2-1.263 0-2.351.382-3.259 1.19l.014-.895c.963-.654 2.053-.948 3.245-.948.522 0 .976.072 1.455.196l-.014.657" fill="#008f4f"/><path d="m323.21 578.93h-1.073v-2.703c0 0 .521-.015 1.145-.015.093 0 .184.008.266.012.996.082 1.409.626 1.409 1.279 0 .733-.58 1.287-1.409 1.406-.109.015-.223.021-.338.021m2.937 2.805l-1.999-1.924c1.229-.12 2.264-1.023 2.264-2.196 0-1.249-.719-2.354-2.864-2.442-.09-.005-.184-.008-.279-.008-1.485 0-2.504.071-2.504.071 0 0 .067.733.067 1.102v5.397c0 .498-.097 1.019-.097 1.019h1.499c0 0-.097-.521-.097-1.115v-2.196l1.41 1.474.712.737c.439.48 1.205 1.101 1.205 1.101h1.981c0-.002-.886-.622-1.298-1.02" fill="#003b79"/><g fill="#008f4f"><path d="m345.73 581.98v.767h-4.795l3.468-4.098c.295-.354.502-.757.502-1.238 0-.825-.669-1.435-1.475-1.435-.895 0-1.474.657-1.493 1.522h-.825c.029-1.297.981-2.289 2.29-2.289 1.236 0 2.328.904 2.328 2.191 0 .599-.178 1.121-.562 1.563l-2.563 3.02h3.125"/><path d="m348.14 582.74h-.786v-3.892h-.433v-.728h.433v-1.191c0-.383 0-.864.206-1.198.256-.413.718-.58 1.189-.58.187 0 .373.04.56.099v.795c-.177-.058-.334-.107-.53-.107-.639 0-.639.451-.639 1.268v.916h1.169v.728h-1.169v3.89"/><path d="m350.76 578.62h.021c.245-.383.638-.629 1.11-.629.541 0 1.031.284 1.276.767.275-.511.826-.767 1.386-.767 1.181 0 1.475.963 1.475 1.936v2.811h-.786v-2.683c0-.6-.039-1.337-.845-1.337-.904 0-1 .875-1 1.573v2.446h-.785v-2.623c0-.57-.069-1.396-.826-1.396-.924 0-1.022.934-1.022 1.631v2.389h-.785v-4.618h.785v.5"/></g></g></svg>

<?xml version="1.0" encoding="UTF-8" standalone="no"?>
<!-- Created with Inkscape (http://www.inkscape.org/) -->
<svg
   xmlns:dc="http://purl.org/dc/elements/1.1/"
   xmlns:cc="http://web.resource.org/cc/"
   xmlns:rdf="http://www.w3.org/1999/02/22-rdf-syntax-ns#"
   xmlns:svg="http://www.w3.org/2000/svg"
   xmlns="http://www.w3.org/2000/svg"
   xmlns:xlink="http://www.w3.org/1999/xlink"
   xmlns:sodipodi="http://sodipodi.sourceforge.net/DTD/sodipodi-0.dtd"
   xmlns:inkscape="http://www.inkscape.org/namespaces/inkscape"
   width="712"
   height="180"
   id="svg2"
   sodipodi:version="0.32"
   inkscape:version="0.45.1"
   version="1.0">
  <g
     inkscape:label="Layer 1"
     inkscape:groupmode="layer"
     id="layer1"
     transform="translate(-245.62554,-333.82934)">
    <path
       style="fill:#003b79"
       id="path4023"
       d="M 336.103,581.676 C 334.801,581.676 333.706,580.745 333.509,579.43 L 335.974,579.43 C 336.245,579.43 336.84,579.487 336.84,579.487 L 336.84,578.396 C 336.84,578.396 336.257,578.439 335.932,578.439 L 333.509,578.439 C 333.753,577.148 334.815,576.255 336.103,576.255 C 336.783,576.255 337.62,576.568 337.62,576.568 L 337.635,575.42 C 337.635,575.42 337.04,575.195 336.104,575.195 C 333.937,575.195 332.04,576.852 332.04,578.961 C 332.04,581.243 333.937,582.785 336.104,582.785 C 337.123,582.785 337.731,582.514 337.731,582.514 L 337.703,581.326 C 337.702,581.326 336.951,581.676 336.103,581.676"
       clip-path="url(#SVGID_96_)"
       transform="matrix(20.174544,0,0,20.174544,-6225.1577,-11243.595)" />
    <path
       style="fill:#003b79"
       id="path4025"
       d="M 328.727,582.756 C 328.727,582.756 328.809,582.205 328.809,581.723 L 328.809,576.486 L 328.455,576.486 C 327.974,576.486 327.226,576.486 326.675,576.541 L 326.628,575.323 L 332.379,575.323 L 332.352,576.541 C 331.783,576.486 331.05,576.486 330.553,576.486 L 330.115,576.486 L 330.115,581.723 C 330.115,582.205 330.212,582.756 330.212,582.756 L 328.727,582.756 z "
       clip-path="url(#SVGID_96_)"
       transform="matrix(20.174544,0,0,20.174544,-6225.1577,-11243.595)" />
    <path
       style="fill:#008f4f"
       id="path4027"
       d="M 337.645,574.716 C 337.223,574.597 336.668,574.516 336.204,574.516 C 334.941,574.516 333.853,574.898 332.945,575.706 L 332.959,574.811 C 333.922,574.157 335.012,573.863 336.204,573.863 C 336.726,573.863 337.18,573.935 337.659,574.059 L 337.645,574.716 z "
       clip-path="url(#SVGID_96_)"
       transform="matrix(20.174544,0,0,20.174544,-6225.1577,-11243.595)" />
    <path
       style="fill:#003b79"
       id="path4029"
       d="M 323.215,578.932 L 322.142,578.932 L 322.142,576.229 C 322.142,576.229 322.663,576.214 323.287,576.214 C 323.38,576.214 323.471,576.222 323.553,576.226 C 324.549,576.308 324.962,576.852 324.962,577.505 C 324.962,578.238 324.382,578.792 323.553,578.911 C 323.444,578.926 323.33,578.932 323.215,578.932 M 326.152,581.737 L 324.153,579.813 C 325.382,579.693 326.417,578.79 326.417,577.617 C 326.417,576.368 325.698,575.263 323.553,575.175 C 323.463,575.17 323.369,575.167 323.274,575.167 C 321.789,575.167 320.77,575.238 320.77,575.238 C 320.77,575.238 320.837,575.971 320.837,576.34 L 320.837,581.737 C 320.837,582.235 320.74,582.756 320.74,582.756 L 322.239,582.756 C 322.239,582.756 322.142,582.235 322.142,581.641 L 322.142,579.445 L 323.552,580.919 L 324.264,581.656 C 324.703,582.136 325.469,582.757 325.469,582.757 L 327.45,582.757 C 327.451,582.755 326.564,582.135 326.152,581.737"
       clip-path="url(#SVGID_96_)"
       transform="matrix(20.174544,0,0,20.174544,-6225.1577,-11243.595)" />
    <path
       style="fill:#008f4f"
       id="path4031"
       d="M 345.727,581.975 L 345.727,582.742 L 340.932,582.742 L 344.4,578.644 C 344.695,578.29 344.902,577.887 344.902,577.406 C 344.902,576.581 344.233,575.971 343.427,575.971 C 342.532,575.971 341.953,576.628 341.934,577.493 L 341.109,577.493 C 341.138,576.196 342.09,575.204 343.399,575.204 C 344.635,575.204 345.727,576.108 345.727,577.395 C 345.727,577.994 345.549,578.516 345.165,578.958 L 342.602,581.975 L 345.727,581.975 L 345.727,581.975 z "
       clip-path="url(#SVGID_96_)"
       transform="matrix(20.174544,0,0,20.174544,-6225.1577,-11243.595)" />
    <path
       style="fill:#008f4f"
       id="path4033"
       d="M 348.141,582.742 L 347.355,582.742 L 347.355,578.85 L 346.922,578.85 L 346.922,578.122 L 347.355,578.122 L 347.355,576.931 C 347.355,576.548 347.355,576.067 347.561,575.733 C 347.817,575.32 348.279,575.153 348.75,575.153 C 348.937,575.153 349.123,575.193 349.31,575.252 L 349.31,576.047 C 349.133,575.989 348.976,575.94 348.78,575.94 C 348.141,575.94 348.141,576.391 348.141,577.208 L 348.141,578.124 L 349.31,578.124 L 349.31,578.852 L 348.141,578.852 L 348.141,582.742 L 348.141,582.742 z "
       clip-path="url(#SVGID_96_)"
       transform="matrix(20.174544,0,0,20.174544,-6225.1577,-11243.595)" />
    <path
       style="fill:#008f4f"
       id="path4035"
       d="M 350.764,578.625 L 350.785,578.625 C 351.03,578.242 351.423,577.996 351.895,577.996 C 352.436,577.996 352.926,578.28 353.171,578.763 C 353.446,578.252 353.997,577.996 354.557,577.996 C 355.738,577.996 356.032,578.959 356.032,579.932 L 356.032,582.743 L 355.246,582.743 L 355.246,580.06 C 355.246,579.46 355.207,578.723 354.401,578.723 C 353.497,578.723 353.398,579.598 353.398,580.296 L 353.398,582.742 L 352.613,582.742 L 352.613,580.119 C 352.613,579.549 352.544,578.723 351.787,578.723 C 350.863,578.723 350.765,579.657 350.765,580.354 L 350.765,582.743 L 349.98,582.743 L 349.98,578.125 L 350.765,578.125 L 350.765,578.625 L 350.764,578.625 z "
       clip-path="url(#SVGID_96_)"
       transform="matrix(20.174544,0,0,20.174544,-6225.1577,-11243.595)" />
  </g>
</svg>
